X:4877
T:Es trug das Mdelein.
R:
O:Alsace - Elsass
A:
S:
B:Chansons populaires de l'Alsace
Z:transcription (partition) : eric.forgeot@caramail.com
N:Weckerlin II - p. 162
N:
M:6/8
L:1/8
Q:1/4=130
K:Bb
D | G2 G (AB) c | d2 d A2 A | d2 d dc B | A3-A z D |
    G2 G (AB) c | d3 A2 A | d2 d (dc) B | A3-A z d |
(fe) d (cd) e | (d3-dc) A | (BA) G c2 B | A3 G2 z ||
W:Es trug das schwarzbraun Mdelein Ein Becher rothen Wein,
W:Zu Straburg auf der Straen, Begegnet ihr allda
W:Ein wunderschner Knab, Er thut sie wohl anfassen.
